X:1
T:Occhi miei
T:Occhi miei
T:Angelo Notari
T:Source : Musiche nuove a 1,2 et 3 voci---London---W.Hole---1613. Editor : André Vierendeels (24/03/14).
C:Angelo Notari
%%score [ 1 2 ] 3
L:1/8
Q:1/4=120
M:2/2
K:F
V:1 treble nm="Soprano 1" snm="S 1"
V:2 treble nm="Soprano 2" snm="S 2"
V:3 bass nm="MusicXML Part"
V:1
 z4 d4- | d4 c4 | d8 | z2 AB cB/A/ G2- | G4 ^F4 | z2 Bc d4- | d4 ^c4 | z2 dd d4- | d2 dd d4 | %9
w: Oc-|* chi|miei,|che ve- de- * * *|* ste,|che ve- de-|* ste,|il bell' I-|* do- lo vo-|
 d2 cc c4- | c2 cc c2 d2 | G2 A2 B4 | A4 z2 Bc | d6 cc | d2 A2 G2 F2 | G4 A4 | z4 z2 c2 | %17
w: stro,- il bell' I-|* do- lo vo- stro'in|pre- d'al- tru-|i, com' all'|hor' am- bi-|due non vi chiu-|de- ste?|E|
 c2 c4 cd | _e4 d2 d2 | G4 A4 | B4 c4 | A4- Adef | g8- | g2 f2 e4 | d4- dGAB | c2 B2 A4 | G8 |: %27
w: tu a- ni- ma|mia, com' al|gran duo-||lo, _ non te ne-|gi-|* st'ia vo-|lo, _ non te ne-|gi- stia vo-|lo?|
 B8 | _e8- | e2 d2 d4- | d2 cB c4 | B4 z2 cc | d6 ^cc | d4 z2 cc | c2 d4 =BA | A4 A4- | A4 G4- | %37
w: Ahi,|Ahi,|_ ch'io pos-|* so ben di-|re, ch'il- so-|verc- chi do-|lor, ch'il so-|verc- * chi do-|lor non|_ fa|
 G4 F4 | E8 | D4 d4- | d4 c4- | c4 B4 | A8 | G8- | G8 :| %45
w: _ mo-|ri-|re, non|_ fa|_ mo-|ri-|re?|_|
V:2
 z4 B4- | B4 G2 A2 | B8 | z4 z2 GA | B4 A4 | z4 z2 DE | F4 E4 | z4 z2 FF | F2 FF F4 | F4 z2 AA | %10
w: Oc-|* chi mie-|i,|che ve-|de- ste,|che ve-|de- ste,|il bell'|I- do- lo vo-|stro, il bell'|
 A2 GG A2 A2 | B2 A2 G4 | ^F4 z4 | z2 DE F2 FF | F2 c2 c2 =B2 | c4 c4 | z2 A2 A4- | A2 G4 GG | %18
w: I- do- lo vo- stro'in|pre- d'al- tru-|i,|com' all'- hor' am- bi-|due non vi chiu-|de- ste?|E tu|_ a- ni- ma|
 G4 G4 | z2 B2 d2 F2 | G4 A4 | ^F4- FFGA | B2 A2 GGAB | ^cc d4 c2 | dDEF G4 | ^F2 G4 F2 | G8 |: %27
w: mi- a,|com' al gran|duo- *|lo, _ non te ne-|gi- * sti, non te ne-|gi- st'ia vo- *|lo, non te ne- gi-|stia vo- *|lo?|
 d4 z4 | G6 A2 | B6 AG | A2 B4 A2 | B4 z4 | z2 FF G2 EE | ^F4 z2 GG | A6 ^GG | A4 z4 | d8 | %37
w: ahi,|ahi ch'io|pos- so ben|di- * *|re,|ch'il so- verc- chi do-|lor, ch'il so-|verc- chi do-|lor|non|
 ^c2 c2 d4- | d4 ^c4 | d4 A4 | G4 A4 | ^F4 G4- | G4 ^F4 | G8- | G8 :| %45
w: fa mo- ri-||re, non|fa mo-|ri- *||re?|_|
V:3
 G,8 | _E,8 | B,,6 D,_E, | F,4 _E,4 | D,8 | z2 G,,A,, B,,4 | A,,8 | D,8 | D,8 | D,2 F,4 F,2- | %10
 F,2 E,2 F,2 D,2 | G,2 ^F,2 G,4 | D,4 z2 G,,A,, | B,,6 A,,A,, | B,,2 F,,2 C,2 D,2 | C,4 F,,4 | %16
 F,4 F,4- | F,2 C,4 C,=B,, | C,4 G,,4 | G,4 F,4 | _E,8 | D,8 | z G,,A,,B,, C,2 B,,2 | A,,8 | %24
 D,B,,C,D, _E,4 | D,8 | G,,8 |: G,2 F,2 _E,2 D,2 | C,6 B,,A,, |"^b" G,,2 G,4 F,E, | F,8 | %31
 B,,4 F,4 | B,,4 G,,2 A,,2 | D,4 C,4 | F,2 D,2 E,4 | A,,8 | B,,8 | A,,8- | A,,8 | D,8 | E,8 | %41
 D,8- | D,8 | G,,8- | G,,8 :| %45

